SVG-Logos/Observability/Grafana/Icons/mimir-icon.svg

<svg xmlns="http://www.w3.org/2000/svg" width="65" height="46" viewBox="0 0 65 46" fill="none">
<path d="M7.96413 46H17.3454L23.9184 33.474L19.3691 24.8089L7.96413 46ZM58.9888 24.4552L53.8592 34.2255L59.8667 45.8563L65 36.0455L58.9888 24.4552ZM57.4302 21.4637L46.4791 0.375781L41.0779 9.82925L52.2931 31.2451L57.4302 21.4637ZM40.3712 34.3582L46.4791 45.9926H56.8945L45.5715 24.4294L40.3712 34.3582ZM17.8141 21.8321L12.7069 12.0545L6.18603 24.4994L11.1966 34.1224L17.8141 21.8321ZM4.66094 27.4615L0 36.5944L5.12964 45.8379L9.67521 37.1102L4.66094 27.4615ZM39.3445 12.6402L33.9135 22.1563L38.8163 31.3998L44.024 21.4711L39.3445 12.6402ZM18.8594 0L14.1725 9.04821L32.3995 43.6385L37.2614 34.3803L28.0511 16.8401L18.8594 0Z" fill="url(#paint0_linear_20727_1782)"/>
<defs>
<linearGradient id="paint0_linear_20727_1782" x1="32.5111" y1="0.729457" x2="32.5111" y2="61.746" gradientUnits="userSpaceOnUse">
<stop stop-color="#F2C144"/>
<stop offset="0.24" stop-color="#F1A03B"/>
<stop offset="0.57" stop-color="#F17A31"/>
<stop offset="0.84" stop-color="#F0632A"/>
<stop offset="1" stop-color="#F05A28"/>
</linearGradient>
</defs>
</svg>

<svg xmlns="http://www.w3.org/2000/svg" fill="none" viewBox="0 0 65 46"><path fill="url(#a)" d="M7.964 46h9.381l6.573-12.526-4.549-8.665L7.964 46ZM58.99 24.455l-5.13 9.77 6.008 11.631L65 36.046l-6.011-11.59Zm-1.559-2.991L46.48.376l-5.402 9.453 11.215 21.416 5.137-9.781ZM40.371 34.358l6.108 11.635h10.416L45.57 24.429l-5.2 9.93ZM17.814 21.832l-5.107-9.777-6.521 12.444 5.01 9.623 6.618-12.29Zm-13.153 5.63L0 36.593l5.13 9.244 4.545-8.728-5.014-9.648ZM39.345 12.64l-5.431 9.516 4.902 9.244 5.208-9.929-4.68-8.83ZM18.858 0l-4.687 9.048L32.4 43.638l4.861-9.258-9.21-17.54L18.86 0Z"/><defs><linearGradient id="a" x1="32.511" x2="32.511" y1=".729" y2="61.746" gradientUnits="userSpaceOnUse"><stop stop-color="#F2C144"/><stop offset=".24" stop-color="#F1A03B"/><stop offset=".57" stop-color="#F17A31"/><stop offset=".84" stop-color="#F0632A"/><stop offset="1" stop-color="#F05A28"/></linearGradient></defs></svg>
